static/img/mute.svg

<svg version="1.1" xmlns="http://www.w3.org/2000/svg" xmlns:xlink="http://www.w3.org/1999/xlink" width="800px" height="800px" viewBox="0,0,256,256"><g fill="#ffffff" fill-rule="evenodd" stroke="none" stroke-width="1" stroke-linecap="butt" stroke-linejoin="miter" stroke-miterlimit="10" stroke-dasharray="" stroke-dashoffset="0" font-family="none" font-weight="none" font-size="none" text-anchor="none" style="mix-blend-mode: normal"><g transform="translate(27.984,0) scale(8,8)"><g id="Page-1"><g transform="translate(-156,-309)" id="Icon-Set-Filled"><path d="M169,335c-1.939,0 -3.764,-0.638 -5.284,-1.682l-1.406,1.424c1.634,1.211 3.582,2.023 5.69,2.213v2.045h-1c-0.552,0 -1,0.448 -1,1c0,0.553 0.448,1 1,1h4c0.552,0 1,-0.447 1,-1c0,-0.552 -0.448,-1 -1,-1h-1v-2.045c4.938,-0.445 9.117,-4.156 10,-8.955h-2c-0.911,4.007 -4.718,7 -9,7zM176,326v-5.261l-11.265,10.776c1.183,0.917 2.651,1.485 4.265,1.485c3.866,0 7,-3.134 7,-7zM160.047,328.145l-0.047,-0.145h-2c0.109,0.596 0.271,1.175 0.478,1.733l1.569,-1.588zM179.577,312.013l-23.587,22.584l1.428,1.408l23.596,-22.572l-1.437,-1.42zM169,309c-3.866,0 -7,3.134 -7,7l-0.003,10.309l13.492,-12.908c-1.033,-2.576 -3.543,-4.401 -6.489,-4.401z" id="microphone-off"></path></g></g></g></g></svg>

<?xml version="1.0" encoding="UTF-8" standalone="no"?>
<!-- Uploaded to: SVG Repo, www.svgrepo.com, Generator: SVG Repo Mixer Tools -->
<svg width="800px" height="800px" viewBox="-3.5 0 32 32" version="1.1" xmlns="http://www.w3.org/2000/svg" xmlns:xlink="http://www.w3.org/1999/xlink" xmlns:sketch="http://www.bohemiancoding.com/sketch/ns">

    <title>microphone-off</title>
    <desc>Created with Sketch Beta.</desc>
    <defs>

</defs>
    <g id="Page-1" stroke="none" stroke-width="1" fill="none" fill-rule="evenodd" sketch:type="MSPage">
        <g id="Icon-Set-Filled" sketch:type="MSLayerGroup" transform="translate(-156.000000, -309.000000)" fill="#000000">
            <path d="M169,335 C167.061,335 165.236,334.362 163.716,333.318 L162.31,334.742 C163.944,335.953 165.892,336.765 168,336.955 L168,339 L167,339 C166.448,339 166,339.448 166,340 C166,340.553 166.448,341 167,341 L171,341 C171.552,341 172,340.553 172,340 C172,339.448 171.552,339 171,339 L170,339 L170,336.955 C174.938,336.51 179.117,332.799 180,328 L178,328 C177.089,332.007 173.282,335 169,335 L169,335 Z M176,326 L176,320.739 L164.735,331.515 C165.918,332.432 167.386,333 169,333 C172.866,333 176,329.866 176,326 L176,326 Z M160.047,328.145 L160,328 L158,328 C158.109,328.596 158.271,329.175 158.478,329.733 L160.047,328.145 L160.047,328.145 Z M179.577,312.013 L155.99,334.597 L157.418,336.005 L181.014,313.433 L179.577,312.013 L179.577,312.013 Z M169,309 C165.134,309 162,312.134 162,316 L161.997,326.309 L175.489,313.401 C174.456,310.825 171.946,309 169,309 L169,309 Z" id="microphone-off" sketch:type="MSShapeGroup">

</path>
        </g>
    </g>
</svg>
